X:1
T:Gerar, SM
T:Gerar, SM
T:Lowell Mason, 1839
T:Public Domain Courtesy of the Cyber Hymnal™
C:Lowell Mason, 1839
Z:Public Domain
Z:Courtesy of the Cyber Hymnal™
%%score ( 1 2 ) ( 3 4 )
L:1/8
Q:1/4=115
M:3/4
K:F
V:1 treble 
V:2 treble 
V:3 bass 
V:4 bass 
V:1
 F2 A2 F2 | [Ec]4 [CE]2 | [CF]4 [FA]2 | ([FA]2 [EG]2) [Gc]2 | (c2 =B2) [Fd]2 | [Ec]4 [Ac]2 | %6
 ([Ac]>[GB] [FA]2) [FA]2 | ([GB]>[Ac] [Bd]2) [GB]2 | ([GB]>[FA] [EG]2) [EG]2 | %9
 ([FA]>[GB] [Ac]2) [Fc]2 | ([Af]2 [Fc]2) [FA]2 | ([FA]2 [CF]2) [CG]2 | [CF]6 |] %13
V:2
 F2 A2 F2 | x6 | x6 | x6 | G4 x2 | x6 | x6 | x6 | x6 | x6 | x6 | x6 | x6 |] %13
V:3
 F,2 A,2 F,2 | [C,G,]4 [C,B,]2 | [F,A,]4 [F,C]2 | [C,C]4 [C,E]2 | (E2 D2) [G,=B,]2 | %5
 [C,C]4 [A,C]2 | ([A,C]>[G,B,] [F,A,]2) [F,A,]2 | ([G,B,]>[A,C] [B,D]2) [G,B,]2 | %8
 ([G,B,]>[F,A,] [E,G,]2) [E,G,]2 | ([F,A,]>[G,B,] [A,C]2) [F,A,]2 | (C2 A,2) [F,C]2 | %11
 (C2 A,2) [C,B,]2 | [F,A,]6 |] %13
V:4
 F,2 A,2 F,2 | x6 | x6 | x6 | G,4 x2 | x6 | x6 | x6 | x6 | x6 | F,4 x2 | C,4 x2 | x6 |] %13

